X: 28
T: Missa Conceptio tua / Gloria
N: Derived from Rue1006b-Missa_Conceptio_tua-Gloria.krn
C: Pierre de la Rue
%%abc-version 2.0
%%abcx-abcm2ps-target-version 5.9.1 (29 Sep 2008)
%%abc-creator hum2abc beta
%%abcx-conversion-date 2019/02/17 08:01:10
%%abc-edited-by Jesse Rodin
%%abc-edited-by Chris Gage 01-03-2013
%%abcx-initial-encoding-date 2013/07/20/
%%humdrum-veritas 2129121974
%%humdrum-veritas-data 792342320
%%linebreak <none>
%%barnumbers 0
L: 1/4
M: 3/1
Q: 1/2=120
V: 1 clef=treble-8
V: 2 clef=treble-8
V: 3 clef=treble-8
V: 4 clef=bass
V: 5 clef=bass
K: C
[V:1] z12 | 
[V:2] D8D4 | 
[V:3] z12 | 
[V:4] z12 | 
[V:5] D,6C,2B,,4 | 
[V:1] z12 | 
[V:2] C2C2F8 | 
[V:3] z12 | 
[V:4] z12 | 
[V:5] A,,4D,3C,D,C,B,,A,, | 
[V:1] d8d4 | 
[V:2] G3EFGA4^G2 | 
[V:3] z12 | 
[V:4] z12 | 
[V:5] G,,2D,4C,2B,,4 | 
[V:1] c2c2f8 | 
[V:2] A2A3GFED2A2 | 
[V:3] z12 | 
[V:4] z12 | 
[V:5] A,,4z4z4 | 
[V:1] g3efga4^g2 | 
[V:2] B2c4A2B4 | 
[V:3] z12 | 
[V:4] z12 | 
[V:5] z12 | 
[V:1] a2e2e2g4fe | 
[V:2] A4z2E3FGA | 
[V:3] z12 | 
[V:4] z12 | 
[V:5] z12 | 
[V:1] defedcBAB4 | 
[V:2] BcdcBAA4^G2 | 
[V:3] z12 | 
[V:4] z12 | 
[V:5] z12 | 
[V:1] z2A3Bcdefg2- | 
[V:2] A2c2c2c4BA | 
[V:3] z12 | 
[V:4] z12 | 
[V:5] z12 | 
[V:1] gfede2d4^c2 | 
[V:2] GABAGFEDE4 | 
[V:3] z12 | 
[V:4] z12 | 
[V:5] z12 | 
[V:1] d8z4 | 
[V:2] D4z4z4 | 
[V:3] D8D4 | 
[V:4] z2F,2F,4G,4 | 
[V:5] z2D,4C,2B,,4 | 
[V:1] z12 | 
[V:2] z12 | 
[V:3] C4F8 | 
[V:4] A,12 | 
[V:5] A,,4D,2D,3C,B,,A,, | 
[V:1] z12 | 
[V:2] z12 | 
[V:3] G3FEDF4E2 | 
[V:4] z2G,4A,2_B,4 | 
[V:5] G,,2C,3B,,A,,2G,,4 | 
[V:1] z12 | 
[V:2] z12 | 
[V:3] F8G4 | 
[V:4] A,2A,4G,F,E,3D, | 
[V:5] F,,3G,,A,,2_B,,2G,,4 | 
[V:1] z12 | 
[V:2] z12 | 
[V:3] A12- | 
[V:4] F,2F,2F,2F,4E,D, | 
[V:5] F,,8z2A,,2 | 
[V:1] z12 | 
[V:2] z12 | 
[V:3] A12 | 
[V:4] F,2E,D,C,2C,2F,2E,D, | 
[V:5] A,,2A,,4G,,F,,A,,2G,,F,, | 
[V:1] z12 | 
[V:2] z12 | 
[V:3] z12 | 
[V:4] C,2C,3D,E,F,G,3F, | 
[V:5] E,,2E,,2A,,2G,,F,,E,,2E,,2- | 
[V:1] z12 | 
[V:2] z12 | 
[V:3] z12 | 
[V:4] E,D,E,4D,3^C,C,2 | 
[V:5] E,,F,,G,,A,,G,,F,,E,,D,,E,,4 | 
[V:1] f4f2f4f2- | 
[V:2] z4F4F2F2- | 
[V:3] A12- | 
[V:4] D,12 | 
[V:5] D,,12 | 
[V:1] f2edc2d2e2f2 | 
[V:2] F2F4EDC2D2 | 
[V:3] A12 | 
[V:4] z12 | 
[V:5] z12 | 
[V:1] g3fe3d/c/B4 | 
[V:2] EFGAB2A4^G2 | 
[V:3] G6E2E4 | 
[V:4] B,,4B,,2E,3D,B,,2 | 
[V:5] E,,6E,,2E,,4 | 
[V:1] A8z4 | 
[V:2] A2A3BcAc2c2 | 
[V:3] E12- | 
[V:4] C,3D,E,2C,3D,E,C, | 
[V:5] A,,4A,,2A,,3B,,C,A,, | 
[V:1] z4z4a4 | 
[V:2] A3GFEE4D2 | 
[V:3] E8F4 | 
[V:4] E,3D,C,2B,,2A,,4 | 
[V:5] C,3B,,A,,2G,,2F,,4 | 
[V:1] g2g4g2e4 | 
[V:2] E8E4 | 
[V:3] G8G4 | 
[V:4] B,,8C,4 | 
[V:5] E,,12- | 
[V:1] e3fgea4g2 | 
[V:2] B2c4BAB4 | 
[V:3] E8E4 | 
[V:4] B,,2E,4D,C,B,,2E,2 | 
[V:5] E,,12 | 
[V:1] e2f4e4d2 | 
[V:2] A4z4A4 | 
[V:3] A4G2E2F4 | 
[V:4] A,,2A,,2C,4D,4 | 
[V:5] z12 | 
[V:1] e12 | 
[V:2] B2c4BAB4 | 
[V:3] E3FGEA4G2 | 
[V:4] B,,2E,4D,C,B,,2E,2 | 
[V:5] E,,4E,,2E,,4E,,2 | 
[V:1] z4z4e4 | 
[V:2] c2A2BAGFG4 | 
[V:3] F2E3DD4^C2 | 
[V:4] A,,2C,2B,,2A,,4G,,2 | 
[V:5] A,,4G,,2F,,2E,,4 | 
[V:1] f2d3efga2g2- | 
[V:2] F4A4F2G2 | 
[V:3] D12 | 
[V:4] A,,8z4 | 
[V:5] D,,12- | 
[V:1] g2f2g2d4f2- | 
[V:2] A4G4D4 | 
[V:3] z12 | 
[V:4] z12 | 
[V:5] D,,4z4z4 | 
[V:1] f2d4f4ed | 
[V:2] F4D2D2F2G2 | 
[V:3] z12 | 
[V:4] z12 | 
[V:5] z12 | 
[V:1] c8z4 | 
[V:2] A8z4 | 
[V:3] z4A6A2 | 
[V:4] z4F,6F,2 | 
[V:5] z4F,,6F,,2 | 
[V:1] z12 | 
[V:2] z12 | 
[V:3] A8G4 | 
[V:4] F,8E,4 | 
[V:5] F,,3E,,D,,2D,3^C,C,2 | 
[V:1] z12 | 
[V:2] z12 | 
[V:3] F4z2F2E2E2 | 
[V:4] D,2A,4A,2G,3F, | 
[V:5] D,2D,2D,2D,2E,3D, | 
[V:1] z12 | 
[V:2] z12 | 
[V:3] G3FGFEDE4 | 
[V:4] E,D,E,4D,3^C,C,2 | 
[V:5] C,B,,C,4D,2A,,4 | 
[V:1] z2d4f4d2- | 
[V:2] z4D4F4 | 
[V:3] D12 | 
[V:4] D,4A,,8 | 
[V:5] D,,12 | 
[V:1] d2f4edc4 | 
[V:2] D4F2G2A4 | 
[V:3] z12 | 
[V:4] z12 | 
[V:5] z12 | 
[V:1] z12 | 
[V:2] z12 | 
[V:3] A6A2A4 | 
[V:4] F,6F,2F,4 | 
[V:5] z2D,4D,2D,2D,2 | 
[V:1] z12 | 
[V:2] z12 | 
[V:3] G3FE2DCD4 | 
[V:4] G,2E,F,G,2A,4^G,2 | 
[V:5] E,3D,C,2B,,A,,B,,4 | 
[V:1] z2e4f2d2f2 | 
[V:2] c6A2BcdB | 
[V:3] C8z4 | 
[V:4] A,8z4 | 
[V:5] A,,8z4 | 
[V:1] efgef2e4a2- | 
[V:2] c2B2A2c4c2 | 
[V:3] z4z4z2C2- | 
[V:4] z4z2A,4A,2 | 
[V:5] z4z4z2F,,2- | 
[V:1] a2a2g2e4a2- | 
[V:2] A4B2E2c4 | 
[V:3] C2C2B,2C4C2- | 
[V:4] F,3E,D,2A,4A,2 | 
[V:5] F,,2F,,2G,,2A,,4F,,2- | 
[V:1] a2a2g2e3fge | 
[V:2] A4B2c3BG2 | 
[V:3] C2C2B,2A,2C4 | 
[V:4] F,3E,D,2C,3D,E,2 | 
[V:5] F,,2F,,2G,,2A,,3G,,E,,2 | 
[V:1] fedcBAd4^c2 | 
[V:2] F3GA2_B2A4 | 
[V:3] D2A4GFE4 | 
[V:4] A,,4z4A,,4 | 
[V:5] D,,4F,,2G,,2A,,4 | 
[V:1] d12 ||  
[V:2] A12 ||  
[V:3] D12 ||  
[V:4] A,,12 ||  
[V:5] D,,12 ||  
[V:1]  [K:C] [K:clef=treble-8][M:2/1]z8 | 
[V:2]  [K:C] [K:clef=treble-8][M:2/1]z8 | 
[V:3]  [K:C] [K:clef=treble-8][M:2/1]z8 | 
[V:4]  [K:C] [K:clef=bass][M:2/1]D,8 | 
[V:5]  [K:C] [K:clef=bass][M:2/1]z8 | 
[V:1] z8 | 
[V:2] z8 | 
[V:3] z8 | 
[V:4] D,4C,4 | 
[V:5] z8 | 
[V:1] z8 | 
[V:2] z8 | 
[V:3] D8 | 
[V:4] F,6D,2 | 
[V:5] z8 | 
[V:1] z8 | 
[V:2] z8 | 
[V:3] D4C4 | 
[V:4] F,4G,4 | 
[V:5] z8 | 
[V:1] z8 | 
[V:2] z8 | 
[V:3] F6D2 | 
[V:4] A,6G,2 | 
[V:5] D,8 | 
[V:1] z8 | 
[V:2] z8 | 
[V:3] F4G4 | 
[V:4] F,2E,D,E,4 | 
[V:5] D,4C,4 | 
[V:1] z8 | 
[V:2] z8 | 
[V:3] A3GA2B2- | 
[V:4] D,3E,F,2G,2- | 
[V:5] F,6E,2 | 
[V:1] z8 | 
[V:2] z8 | 
[V:3] BAA4^G2 | 
[V:4] G,F,E,4D,2 | 
[V:5] D,2C,2B,,4 | 
[V:1] z8 | 
[V:2] z8 | 
[V:3] A4E4 | 
[V:4] E,2A,2G,2F,E, | 
[V:5] A,,4z4 | 
[V:1] z8 | 
[V:2] z8 | 
[V:3] z4z2A2 | 
[V:4] F,4E,4 | 
[V:5] z2D,2C,2B,,A,, | 
[V:1] z8 | 
[V:2] z8 | 
[V:3] G2FEF4 | 
[V:4] z4z2A,2 | 
[V:5] B,,4A,,4 | 
[V:1] z4A4 | 
[V:2] z8 | 
[V:3] E4z4 | 
[V:4] G,2F,E,F,4 | 
[V:5] z4z2D,2 | 
[V:1] A4G4 | 
[V:2] z8 | 
[V:3] z8 | 
[V:4] E,2E,4D,2 | 
[V:5] C,2B,,A,,B,,4 | 
[V:1] c6A2 | 
[V:2] z8 | 
[V:3] z2A2G2FE | 
[V:4] E,4z4 | 
[V:5] A,,4z2D,2 | 
[V:1] c4d4 | 
[V:2] z8 | 
[V:3] FEG2G3F | 
[V:4] z2E,2D,C,B,,A,, | 
[V:5] C,2B,,A,,B,,2G,,2- | 
[V:1] e8 | 
[V:2] z8 | 
[V:3] EDD4^C2 | 
[V:4] B,,2A,,4G,,2 | 
[V:5] G,,F,,E,,D,,E,,4 | 
[V:1] A6G2 | 
[V:2] z4D4 | 
[V:3] D8 | 
[V:4] A,,8 | 
[V:5] D,,8 | 
[V:1] F2EDE4 | 
[V:2] D4C4 | 
[V:3] z8 | 
[V:4] z8 | 
[V:5] z8 | 
[V:1] D4z2d2 | 
[V:2] F6D2 | 
[V:3] z8 | 
[V:4] z8 | 
[V:5] z8 | 
[V:1] c2BAB4 | 
[V:2] F4G4 | 
[V:3] z8 | 
[V:4] z8 | 
[V:5] z8 | 
[V:1] A2a2g2fe | 
[V:2] A4z2A2 | 
[V:3] z8 | 
[V:4] z8 | 
[V:5] z8 | 
[V:1] fee4d2 | 
[V:2] G2FEF4 | 
[V:3] z8 | 
[V:4] z8 | 
[V:5] z8 | 
[V:1] e4e4- | 
[V:2] E4z2A2- | 
[V:3] C8- | 
[V:4] z2A,4A,2 | 
[V:5] A,,8 | 
[V:1] e4e4 | 
[V:2] A2A2E4 | 
[V:3] C4C4 | 
[V:4] E,4z2A,2- | 
[V:5] A,,4A,,4- | 
[V:1] e8 | 
[V:2] z2A4A2 | 
[V:3] C8 | 
[V:4] A,2A,2E,2A,2 | 
[V:5] A,,4A,,4 | 
[V:1] e4e4 | 
[V:2] E4z2A2 | 
[V:3] C4C4 | 
[V:4] G,2E,4D,C, | 
[V:5] C,4A,,4 | 
[V:1] g6fe | 
[V:2] G2E4DC | 
[V:3] E4G4- | 
[V:4] B,,8 | 
[V:5] E,,6F,,2 | 
[V:1] d6e2 | 
[V:2] B,4G4 | 
[V:3] G2FED4- | 
[V:4] B,,6C,2 | 
[V:5] G,,8 | 
[V:1] f6ed | 
[V:2] F6G2 | 
[V:3] D2E2F4- | 
[V:4] D,6C,B,, | 
[V:5] D,,6E,,2 | 
[V:1] c2B2A2f2 | 
[V:2] A8 | 
[V:3] F2EDC2D2 | 
[V:4] A,,8 | 
[V:5] F,,3G,,A,,2B,,2 | 
[V:1] e2d4^c2 | 
[V:2] A8 | 
[V:3] E2F2E4 | 
[V:4] z8 | 
[V:5] C,2D,2A,,4 | 
[V:1] d8 | 
[V:2] z4A4 | 
[V:3] D8 | 
[V:4] z8 | 
[V:5] D,,8 | 
[V:1] z4e4 | 
[V:2] A6GF | 
[V:3] z8 | 
[V:4] z8 | 
[V:5] A,,8- | 
[V:1] e6dc | 
[V:2] E4A4 | 
[V:3] z8 | 
[V:4] z8 | 
[V:5] A,,8 | 
[V:1] B4e4 | 
[V:2] G4c4 | 
[V:3] z8 | 
[V:4] z8 | 
[V:5] z8 | 
[V:1] d4g4 | 
[V:2] B2G3ABG | 
[V:3] z8 | 
[V:4] z8 | 
[V:5] z8 | 
[V:1] f2e3fge | 
[V:2] A2GFE4 | 
[V:3] z8 | 
[V:4] z8 | 
[V:5] z8 | 
[V:1] fedcB4 | 
[V:2] z2A2A2G2 | 
[V:3] z8 | 
[V:4] z8 | 
[V:5] z8 | 
[V:1] c2A2z2e2 | 
[V:2] A2c3BAG | 
[V:3] z8 | 
[V:4] z8 | 
[V:5] z8 | 
[V:1] e2d2e2g2- | 
[V:2] A2GFE4 | 
[V:3] z8 | 
[V:4] z8 | 
[V:5] z8 | 
[V:1] gfede2dc | 
[V:2] E4z2E2 | 
[V:3] z8 | 
[V:4] z8 | 
[V:5] z8 | 
[V:1] B2B2B2d2- | 
[V:2] E2G4FE | 
[V:3] z8 | 
[V:4] z8 | 
[V:5] z8 | 
[V:1] d2cBABcd | 
[V:2] DEFGA2GF | 
[V:3] z8 | 
[V:4] z8 | 
[V:5] z8 | 
[V:1] e2dcB4 | 
[V:2] E2A4^G2 | 
[V:3] z8 | 
[V:4] z8 | 
[V:5] z8 | 
[V:1] A8 | 
[V:2] A8 | 
[V:3] z4A4- | 
[V:4] z4A,,3B,, | 
[V:5] A,,6A,,2 | 
[V:1] z8 | 
[V:2] z8 | 
[V:3] A2A2A4- | 
[V:4] C,2D,2E,2F,2- | 
[V:5] A,,4A,,4 | 
[V:1] z8 | 
[V:2] z8 | 
[V:3] A4B4 | 
[V:4] F,2D,4G,2- | 
[V:5] F,,4G,,4 | 
[V:1] z8 | 
[V:2] z8 | 
[V:3] G4G4 | 
[V:4] G,2F,2E,2D,2 | 
[V:5] E,,8 | 
[V:1] z8 | 
[V:2] z8 | 
[V:3] A6G2 | 
[V:4] C,2B,,2A,,4 | 
[V:5] F,,8 | 
[V:1] z8 | 
[V:2] z8 | 
[V:3] F2E2D4- | 
[V:4] A,6G,2 | 
[V:5] D,,8 | 
[V:1] z8 | 
[V:2] z8 | 
[V:3] D4F4 | 
[V:4] F,2E,2D,4- | 
[V:5] D,6C,2 | 
[V:1] z8 | 
[V:2] z8 | 
[V:3] F4E4- | 
[V:4] D,4G,4- | 
[V:5] B,,2A,,2G,,2F,,2 | 
[V:1] z8 | 
[V:2] z8 | 
[V:3] E2DCB,2G2- | 
[V:4] G,2F,2E,2D,2 | 
[V:5] E,,8 | 
[V:1] z8 | 
[V:2] z8 | 
[V:3] G2G4F2 | 
[V:4] C,2B,,A,,B,,2C,2 | 
[V:5] E,,4E,,4 | 
[V:1] z8 | 
[V:2] z8 | 
[V:3] E2DCB,2G2 | 
[V:4] B,,2G,3F,E,2- | 
[V:5] E,,8- | 
[V:1] z8 | 
[V:2] z8 | 
[V:3] E2A4^G2 | 
[V:4] E,2D,C,B,,4 | 
[V:5] E,,8 | 
[V:1] z4A3B | 
[V:2] z4A4 | 
[V:3] A8 | 
[V:4] A,,8 | 
[V:5] A,,8 | 
[V:1] c2d2e2f2- | 
[V:2] A4A4 | 
[V:3] z8 | 
[V:4] z8 | 
[V:5] z8 | 
[V:1] f2d4g2- | 
[V:2] B4G4 | 
[V:3] z8 | 
[V:4] z8 | 
[V:5] z8 | 
[V:1] g2f2e2d2 | 
[V:2] c6B2 | 
[V:3] z8 | 
[V:4] z8 | 
[V:5] z8 | 
[V:1] c2B2A2e2 | 
[V:2] A2G2F2E2 | 
[V:3] z8 | 
[V:4] z8 | 
[V:5] z8 | 
[V:1] f3edcf2 | 
[V:2] D2A2_B2A2- | 
[V:3] z8 | 
[V:4] z8 | 
[V:5] z8 | 
[V:1] e2d3^c^c2 | 
[V:2] AGF2E4 | 
[V:3] z8 | 
[V:4] z8 | 
[V:5] z8 | 
[V:1] d8 | 
[V:2] D8 | 
[V:3] z8 | 
[V:4] z8 | 
[V:5] z8 | 
[V:1] [M:3/1]z12 | 
[V:2] [M:3/1]z12 | 
[V:3] [M:3/1]E6F2G4 | 
[V:4] [M:3/1]z12 | 
[V:5] [M:3/1]A,,8_B,,4 | 
[V:1] z12 | 
[V:2] z12 | 
[V:3] A8A4- | 
[V:4] C,6D,2E,4 | 
[V:5] A,,8A,,4 | 
[V:1] z12 | 
[V:2] z12 | 
[V:3] A4G8 | 
[V:4] F,8E,4 | 
[V:5] F,,4C,8 | 
[V:1] z12 | 
[V:2] z12 | 
[V:3] F4C2D2E4 | 
[V:4] A,8A,4- | 
[V:5] F,,2G,,2A,,2B,,2C,4 | 
[V:1] z12 | 
[V:2] z12 | 
[V:3] F6E2E4 | 
[V:4] A,4G,8 | 
[V:5] F,,4C,8 | 
[V:1] z12 | 
[V:2] A4A4A4 | 
[V:3] F12- | 
[V:4] F,6E,2D,4 | 
[V:5] F,,12- | 
[V:1] A4A4A4 | 
[V:2] c6B2A2G2 | 
[V:3] F12 | 
[V:4] C,12- | 
[V:5] F,,12- | 
[V:1] c6B2A2G2 | 
[V:2] F8z4 | 
[V:3] z12 | 
[V:4] C,12 | 
[V:5] F,,12- | 
[V:1] F8z4 | 
[V:2] A4A4A4 | 
[V:3] z12 | 
[V:4] C,12 | 
[V:5] F,,12 | 
[V:1] A2B2c2d2e4 | 
[V:2] c6B2A2G2 | 
[V:3] z12 | 
[V:4] z12 | 
[V:5] z12 | 
[V:1] f6e2e4 | 
[V:2] F4G8 | 
[V:3] z12 | 
[V:4] z12 | 
[V:5] z12 | 
[V:1] f8z4 | 
[V:2] F8z4 | 
[V:3] z12 | 
[V:4] z12 | 
[V:5] z12 | 
[V:1] e6f2g4 | 
[V:2] c4c4c4 | 
[V:3] C6D2E4 | 
[V:4] E,4E,4E,4 | 
[V:5] C,4C,4C,4 | 
[V:1] a6g2f4 | 
[V:2] c8z4 | 
[V:3] F6E2D4 | 
[V:4] A,,8z4 | 
[V:5] F,,8z4 | 
[V:1] e8z4 | 
[V:2] c6B2A4 | 
[V:3] C8z4 | 
[V:4] E,8E,4- | 
[V:5] A,,4A,,4A,,4 | 
[V:1] c6d2e4 | 
[V:2] G8c4- | 
[V:3] E6F2G4 | 
[V:4] E,4C,8 | 
[V:5] C,6B,,2A,,2G,,2 | 
[V:1] f6e2e4 | 
[V:2] c4c8 | 
[V:3] A4G8 | 
[V:4] C,6D,2E,4 | 
[V:5] F,,4C,8 | 
[V:1] f8f4 | 
[V:2] A4A6B2 | 
[V:3] F12 | 
[V:4] C,8C,4 | 
[V:5] F,,4F,,6G,,2 | 
[V:1] e4g6f2 | 
[V:2] c4B6A2 | 
[V:3] z12 | 
[V:4] C,4D,4E,4- | 
[V:5] A,,4G,,4E,,4- | 
[V:1] e6dcB4 | 
[V:2] A8^G4 | 
[V:3] z12 | 
[V:4] E,12 | 
[V:5] E,,12 | 
[V:1] A8e4 | 
[V:2] A8z4 | 
[V:3] A8G4 | 
[V:4] C,6D,2E,4 | 
[V:5] A,,6G,,F,,E,,4 | 
[V:1] f4d6e2 | 
[V:2] z12 | 
[V:3] A4F8 | 
[V:4] A,,12 | 
[V:5] D,,8D,,4 | 
[V:1] e8a4 | 
[V:2] A4E4F4 | 
[V:3] E6D2D4 | 
[V:4] z4z4A,,4 | 
[V:5] A,,6G,,2F,,4 | 
[V:1] g4e6d2 | 
[V:2] G4A8 | 
[V:3] E8A4 | 
[V:4] B,,4C,6B,,2 | 
[V:5] E,,4A,,8 | 
[V:1] f6e2e2d2 | 
[V:2] F2G2A2_B2A4 | 
[V:3] A6G2F4 | 
[V:4] D,8C,4 | 
[V:5] D,,2E,,2F,,2G,,2A,,4 | 
[V:1] d8^c4 | 
[V:2] G4A8 | 
[V:3] D4E8 | 
[V:4] D,4A,,4E,4 | 
[V:5] _B,,4A,,8 | 
[V:1] d12- | 
[V:2] A8F4 | 
[V:3] D12- | 
[V:4] F,4F,6E,2 | 
[V:5] D,,8D,,4- | 
[V:1] d12- | 
[V:2] F12- | 
[V:3] D12- | 
[V:4] D,2C,2_B,,4A,,4 | 
[V:5] D,,12- | 
[V:1] d12 |]  
[V:2] F12 |]  
[V:3] D12 |]  
[V:4] A,,12 |]  
[V:5] D,,12 |]  



